public/linkedin.svg

<svg xmlns="http://www.w3.org/2000/svg" xmlns:xlink="http://www.w3.org/1999/xlink" viewBox="0,0,256,256" width="96px" height="96px" fill-rule="nonzero"><g fill="none" fill-rule="nonzero" stroke="none" stroke-width="1" stroke-linecap="butt" stroke-linejoin="miter" stroke-miterlimit="10" stroke-dasharray="" stroke-dashoffset="0" font-family="none" font-weight="none" font-size="none" text-anchor="none" style="mix-blend-mode: normal"><g transform="scale(5.33333,5.33333)"><path d="M42,37c0,2.762 -2.238,5 -5,5h-26c-2.761,0 -5,-2.238 -5,-5v-26c0,-2.762 2.239,-5 5,-5h26c2.762,0 5,2.238 5,5z" fill="#0d507e"></path><path d="M12,19h5v17h-5zM14.485,17h-0.028c-1.492,0 -2.457,-1.112 -2.457,-2.501c0,-1.419 0.995,-2.499 2.514,-2.499c1.521,0 2.458,1.08 2.486,2.499c0,1.388 -0.965,2.501 -2.515,2.501zM36,36h-5v-9.099c0,-2.198 -1.225,-3.698 -3.192,-3.698c-1.501,0 -2.313,1.012 -2.707,1.99c-0.144,0.35 -0.101,1.318 -0.101,1.807v9h-5v-17h5v2.616c0.721,-1.116 1.85,-2.616 4.738,-2.616c3.578,0 6.261,2.25 6.261,7.274l0.001,9.726z" fill="#ffffff"></path></g></g></svg>

<svg xmlns="http://www.w3.org/2000/svg"  viewBox="0 0 48 48" width="144px" height="144px"><path fill="#0288D1" d="M42,37c0,2.762-2.238,5-5,5H11c-2.761,0-5-2.238-5-5V11c0-2.762,2.239-5,5-5h26c2.762,0,5,2.238,5,5V37z"/><path fill="#FFF" d="M12 19H17V36H12zM14.485 17h-.028C12.965 17 12 15.888 12 14.499 12 13.08 12.995 12 14.514 12c1.521 0 2.458 1.08 2.486 2.499C17 15.887 16.035 17 14.485 17zM36 36h-5v-9.099c0-2.198-1.225-3.698-3.192-3.698-1.501 0-2.313 1.012-2.707 1.99C24.957 25.543 25 26.511 25 27v9h-5V19h5v2.616C25.721 20.5 26.85 19 29.738 19c3.578 0 6.261 2.25 6.261 7.274L36 36 36 36z"/></svg>
